X:1
T:Title
%%score { 1 | ( 2 3 ) }
L:1/8
Q:1/4=90
M:2/4
K:D
V:1 treble nm="Grand Piano"
V:2 bass 
V:3 bass 
V:1
 FF [FA][FA] | [GB][FA] F2 | FF [FA][FA] | [GB][Gc] [Fd]2 | [Ac][GB] [FA][EG] | [DF][EG] [FA]2 | %6
w: W.~H.~Doane * * *||||||
 cB A^G | F^G [CEA]2 | [A,FA]2 [A,DF]2 | [A,DF][A,FA] [GB][FA] | [EG]2 [CE]2 | [CE][EG] [FA][EG] | %12
w: ||||||
 [A,DF]2 [DFA]2 | [A,DF][DFA] [DFB][DFd] | [Ec][DFB] [B,DF][B,E^G] | [CEA]4 | [A,FA]2 [A,DF]2 | %17
w: |||||
 [A,DF][A,FA] [GB][FA] | [EG]2 [CE]2 | [CE][EG] [FA][EG] | [DF]2 [FA]2 | [GB][Ac] [Bd]B | %22
w: |||||
 Ad [Ed][Gc] | [Fd]4 |] %24
w: ||
V:2
 [D,A,D][D,A,D] [D,D][D,D] | [D,D][D,D] [D,A,D]2 | [D,A,D][D,A,D] [D,D][D,D] | %3
 [G,D][E,A,] [D,A,]2 | [A,,A,][A,,A,] [A,,A,][A,,A,] | [D,A,][D,A,] [D,D]2 | %6
 [E,A,E][E,DE] [E,CE][E,B,E] | [E,B,D][E,DE] A,,2 | D,2 D,2 | D,D, [D,D][D,D] | [C,A,]2 [A,,A,]2 | %11
 [A,,A,][A,,A,] [A,,A,][A,,A,] | D,2 D,2 | D,D, B,,B,, | [E,A,]E, E,E, | z .A, .G,.E, | D,2 D,2 | %17
 D,D, [D,D][D,D] | [C,A,]2 [A,,A,]2 | [A,,A,][A,,A,] [A,,A,][A,,A,] | [D,A,]2 [D,D]2 | %21
 [G,D][G,D] [G,D][G,DG] | [A,DF][A,F][K:bass] [A,,A,][A,,A,] | [D,A,]4 |] %24
V:3
 x4 | x4 | x4 | x4 | x4 | x4 | x4 | x4 | x4 | x4 | x4 | x4 | x4 | x4 | x4 | A,,4 | x4 | x4 | x4 | %19
 x4 | x4 | x4 | x2[K:bass] x2 | x4 |] %24

